X:1
T:Bredon Hill and Other Songs
T:On the Idle Hill of Summer
T:Bredon Hill and Other Songs
T:George Butterworth
T:4. On the Idle Hill of Summer
T:Alfred Edward Housman
T:Creative Commons copyright waiver (CC0 1.0 Universal)
T:Creative Commons copyright waiver (CC0 1.0 Universal)
T:Creative Commons copyright waiver (CC0 1.0 Universal)
T:Creative Commons copyright waiver (CC0 1.0 Universal)
C:George Butterworth
Z:Alfred Edward Housman
Z:Creative Commons copyright waiver (CC0 1.0 Universal)
L:1/8
Q:1/4=94
M:3/4
K:A
V:1 treble nm="Voice"
V:1
"^Molto sostenuto" z6 | z6 | C3/2 E/ (3(EF) c c F | E F3 c2- | c F E F A3/2 C/ | C4 z2 | z6 | z6 | %8
w: ||On the i- * dle hill of|sum- mer, Sleep-|* y with the flow of|streams,|||
 z6 | z6 | z6 | z6 | z6 | G3/2 G/ c3 G | G3/2 c/ c3 G | F3/2 F/ B F F3/2 ^c/ | B6 | d3/2 B/ A4 | %18
w: |||||Far and near and|low and loud- er,|On the roads of earth go|by,|Dear to friends|
 z6 | z6 | z6 | z6 | z6 | z6 | z6 | z6 | z6 | z6 | z6 | z4 (3(CD) E | F3/2 F/ c3 F | E F3 c2- | %32
w: |||||||||||Love- * ly|lads and dead and|rot- ten; None|
 c F E F A3/2 C/ | C6- | C z z2 z2 | z6 | z6 | z6 | z6 ||[K:C] z6 | z6 | _e3/2 c/ _B c e3/2 c/ | %42
w: _ that go re- turn a-|gain.|_|||||||Gay the files of scar- let|
 (_B3 c) _e2 | z2 f4- | f4 F2 | G6 | F4 z2 | z6 | z6 | z6 | z6 ||[K:A] z6 | z6 | z6 | z6 | z6 | %56
w: fol- * low:|Wo-|* man|bore|me,||||||||||
 z6 | z6 | z6 | z6 |] %60
w: ||||

